cs-stats.svg

<svg width="48" height="48" viewBox="0 0 48 48" fill="#FFFFFFFF" xmlns="http://www.w3.org/2000/svg">
<path d="M10.6875 38.625C8.38194 38.625 6.52082 38.3472 5.10416 37.7917C3.68749 37.2361 2.64582 36.3611 1.97915 35.1667C1.31248 33.9445 0.965278 32.375 0.9375 30.4583C0.9375 28.5139 1.21527 26.1667 1.77083 23.4167C2.24305 20.8611 2.81248 18.6944 3.47915 16.9167C4.17359 15.1111 5.04861 13.6528 6.10416 12.5417C7.15972 11.4306 8.46527 10.625 10.0208 10.125C11.5764 9.625 13.493 9.375 15.7708 9.375C16.6875 9.375 17.6597 9.44444 18.6875 9.58333C19.7153 9.69444 20.7014 9.84722 21.6458 10.0417C22.5903 10.2083 23.4097 10.3611 24.1042 10.5L23.2292 16.2083C22.7014 16.125 22.0625 16.0556 21.3125 16C20.5625 15.9167 19.7847 15.8472 18.9792 15.7917C18.1736 15.7361 17.4375 15.7083 16.7708 15.7083C15.5486 15.7083 14.5208 15.8611 13.6875 16.1667C12.8542 16.4444 12.1458 16.9306 11.5625 17.625C11.0069 18.2917 10.5208 19.1944 10.1042 20.3333C9.71528 21.4444 9.36804 22.8472 9.06249 24.5417C8.75693 26.0972 8.56249 27.375 8.47916 28.375C8.4236 29.375 8.52082 30.1667 8.77082 30.75C9.02082 31.3056 9.46528 31.7083 10.1042 31.9583C10.7431 32.1806 11.6042 32.2917 12.6875 32.2917C13.9097 32.2917 15.1736 32.2361 16.4792 32.125C17.8125 32.0139 18.9236 31.9167 19.8125 31.8333L19.2708 37.6667C18.5764 37.8056 17.743 37.9583 16.7708 38.125C15.7986 38.2639 14.7847 38.375 13.7292 38.4583C12.6736 38.5695 11.6597 38.625 10.6875 38.625Z"/>
<path d="M32.7907 38.625C31.4851 38.625 30.1379 38.5417 28.749 38.375C27.3879 38.2361 26.124 38.0694 24.9573 37.875C23.7907 37.6528 22.8046 37.4583 21.999 37.2917L23.0407 31.625C23.9018 31.7361 24.9018 31.8611 26.0407 32C27.2074 32.1111 28.3601 32.2222 29.499 32.3333C30.6379 32.4167 31.624 32.4583 32.4574 32.4583C33.5963 32.4583 34.4851 32.3333 35.124 32.0833C35.7629 31.8056 36.2213 31.4444 36.499 31C36.7768 30.5278 36.9574 30.0278 37.0407 29.5C37.124 29.0278 37.0824 28.6667 36.9157 28.4167C36.749 28.1667 36.4018 27.9583 35.874 27.7917C35.374 27.5972 34.6101 27.4028 33.5824 27.2083C31.7768 26.9306 30.2768 26.5694 29.0824 26.125C27.8879 25.6528 26.9574 25.0694 26.2907 24.375C25.6518 23.6528 25.249 22.7639 25.0824 21.7083C24.9435 20.6528 25.0129 19.3889 25.2907 17.9167C25.7351 15.6111 26.4712 13.8472 27.499 12.625C28.5546 11.4028 29.874 10.5556 31.4574 10.0833C33.0407 9.61111 34.874 9.375 36.9574 9.375C38.0407 9.375 39.2074 9.43056 40.4574 9.54167C41.7074 9.65278 42.9296 9.79166 44.124 9.95833C45.3185 10.0972 46.3324 10.25 47.1657 10.4167L46.2074 16.1667C45.4018 16.0833 44.4435 16 43.3324 15.9167C42.249 15.8056 41.1657 15.7222 40.0824 15.6667C38.999 15.5833 38.0546 15.5417 37.249 15.5417C36.1101 15.5417 35.2213 15.6806 34.5824 15.9583C33.9713 16.2083 33.5268 16.5278 33.249 16.9167C32.999 17.2778 32.8324 17.6806 32.749 18.125C32.6657 18.5972 32.7073 18.9722 32.874 19.25C33.0407 19.5278 33.3879 19.7639 33.9157 19.9583C34.4435 20.125 35.2073 20.3472 36.2073 20.625C37.9851 21.0139 39.4712 21.4306 40.6657 21.875C41.8601 22.2917 42.7768 22.8333 43.4157 23.5C44.0824 24.1389 44.4851 24.9722 44.624 26C44.7907 27 44.7213 28.2778 44.4157 29.8333C43.999 32.0556 43.2768 33.8056 42.249 35.0833C41.2213 36.3611 39.9157 37.2778 38.3324 37.8333C36.749 38.3611 34.9018 38.625 32.7907 38.625Z" fill="#3872FC"/>
</svg>

<svg width="48" height="48" viewBox="0 0 48 48" fill="#ffffffff" xmlns="http://www.w3.org/2000/svg"><path d="M10.688 38.625q-3.459 0-5.584-.833T1.98 35.167q-1-1.834-1.041-4.709 0-2.916.833-7.041.708-3.834 1.708-6.5 1.042-2.709 2.625-4.375 1.584-1.667 3.917-2.417t5.75-.75q1.375 0 2.916.208a31 31 0 0 1 2.959.459q1.416.25 2.458.458l-.875 5.708A24 24 0 0 0 21.313 16a56 56 0 0 0-2.334-.208 32 32 0 0 0-2.208-.084q-1.833 0-3.084.459a4.66 4.66 0 0 0-2.124 1.458q-.834 1-1.459 2.708Q9.521 22 9.062 24.542q-.458 2.333-.583 3.833-.083 1.5.292 2.375.375.834 1.333 1.208.959.334 2.584.334 1.833 0 3.791-.167a332 332 0 0 0 3.334-.292l-.542 5.834a94 94 0 0 1-2.5.458q-1.458.209-3.042.333-1.583.167-3.041.167"/><path d="M32.79 38.625a34 34 0 0 1-4.041-.25 61 61 0 0 1-3.792-.5A197 197 0 0 1 22 37.292l1.042-5.667q1.29.166 3 .375 1.75.166 3.458.333 1.708.125 2.958.125 1.71 0 2.667-.375.958-.416 1.375-1.083.416-.708.542-1.5.124-.708-.125-1.083-.25-.375-1.042-.625-.75-.293-2.292-.584-2.707-.416-4.5-1.083-1.791-.709-2.791-1.75-.96-1.083-1.209-2.667-.209-1.584.209-3.791.666-3.459 2.208-5.292 1.584-1.833 3.958-2.542 2.376-.708 5.5-.708 1.625 0 3.5.167 1.875.166 3.667.416 1.791.21 3.042.459l-.959 5.75q-1.208-.126-2.875-.25a64 64 0 0 0-3.25-.25 38 38 0 0 0-2.833-.125q-1.709 0-2.667.416-.916.375-1.333.959-.375.541-.5 1.208-.125.708.125 1.125t1.042.708q.791.251 2.291.667 2.667.584 4.459 1.25 1.79.625 2.75 1.625 1 .958 1.208 2.5.25 1.5-.208 3.833-.626 3.334-2.167 5.25-1.541 1.917-3.917 2.75-2.375.792-5.541.792" fill="#3872fc"/></svg>
